icons/korgac.svg

<?xml version="1.0" encoding="UTF-8" standalone="no"?>
<!-- Created with Inkscape (http://www.inkscape.org/) -->

<svg
   xmlns:dc="http://purl.org/dc/elements/1.1/"
   xmlns:cc="http://creativecommons.org/ns#"
   xmlns:rdf="http://www.w3.org/1999/02/22-rdf-syntax-ns#"
   xmlns:svg="http://www.w3.org/2000/svg"
   xmlns="http://www.w3.org/2000/svg"
   xmlns:sodipodi="http://sodipodi.sourceforge.net/DTD/sodipodi-0.dtd"
   xmlns:inkscape="http://www.inkscape.org/namespaces/inkscape"
   version="1.1"
   width="22"
   height="22"
   id="svg3846"
   inkscape:version="0.91 r13725"
   sodipodi:docname="korgac.svg">
  <sodipodi:namedview
     pagecolor="#323232"
     bordercolor="#666666"
     borderopacity="1"
     objecttolerance="10"
     gridtolerance="10"
     guidetolerance="10"
     inkscape:pageopacity="1"
     inkscape:pageshadow="2"
     inkscape:window-width="1920"
     inkscape:window-height="1056"
     id="namedview29"
     showgrid="true"
     inkscape:showpageshadow="false"
     showborder="false"
     showguides="false"
     inkscape:zoom="22.627417"
     inkscape:cx="26.22608"
     inkscape:cy="14.798689"
     inkscape:window-x="0"
     inkscape:window-y="-3"
     inkscape:window-maximized="1"
     inkscape:current-layer="svg3846"
     fit-margin-top="0"
     fit-margin-left="0"
     fit-margin-right="0"
     fit-margin-bottom="0">
    <inkscape:grid
       type="xygrid"
       id="grid3006"
       empspacing="5"
       visible="true"
       enabled="true"
       snapvisiblegridlinesonly="true"
       originx="-1"
       originy="-2" />
  </sodipodi:namedview>
  <defs
     id="defs3848" />
  <metadata
     id="metadata3851">
    <rdf:RDF>
      <cc:Work
         rdf:about="">
        <dc:format>image/svg+xml</dc:format>
        <dc:type
           rdf:resource="http://purl.org/dc/dcmitype/StillImage" />
        <dc:title />
        <dc:creator>
          <cc:Agent>
            <dc:title>obnosim</dc:title>
          </cc:Agent>
        </dc:creator>
        <cc:license
           rdf:resource="http://creativecommons.org/licenses/by-nc-sa/3.0/" />
      </cc:Work>
      <cc:License
         rdf:about="http://creativecommons.org/licenses/by-nc-sa/3.0/">
        <cc:permits
           rdf:resource="http://creativecommons.org/ns#Reproduction" />
        <cc:permits
           rdf:resource="http://creativecommons.org/ns#Distribution" />
        <cc:requires
           rdf:resource="http://creativecommons.org/ns#Notice" />
        <cc:requires
           rdf:resource="http://creativecommons.org/ns#Attribution" />
        <cc:prohibits
           rdf:resource="http://creativecommons.org/ns#CommercialUse" />
        <cc:permits
           rdf:resource="http://creativecommons.org/ns#DerivativeWorks" />
        <cc:requires
           rdf:resource="http://creativecommons.org/ns#ShareAlike" />
      </cc:License>
    </rdf:RDF>
  </metadata>
  <g
     id="korgac"
     transform="translate(-1,0)">
    <rect
       y="0"
       x="1"
       height="22"
       width="22"
       id="rect3842"
       style="fill:none;stroke:none" />
    <path
       inkscape:connector-curvature="0"
       id="path3008"
       d="m 12,5 c -4.418278,0 -8,3.581722 -8,8 0,4.418278 3.581722,8 8,8 4.418278,0 8,-3.581722 8,-8 0,-4.418278 -3.581722,-8 -8,-8 z m 0,2 c 3.313708,0 6,2.6862915 6,6 0,3.313708 -2.686292,6 -6,6 C 8.6862915,19 6,16.313708 6,13 6,9.6862915 8.6862915,7 12,7 Z"
       style="color:#000000;display:inline;overflow:visible;visibility:visible;fill:#e0e0e0;fill-opacity:1;fill-rule:nonzero;stroke:none;stroke-width:1px;marker:none;enable-background:accumulate" />
    <path
       sodipodi:nodetypes="ssscs"
       inkscape:connector-curvature="0"
       id="path3013"
       d="m 13,13 c 0,0.552285 -0.447715,1 -1,1 -0.552285,0 -1,-0.447715 -1,-1 0,-0.552285 1,-5 1,-5 0,0 1,4.447715 1,5 z"
       style="color:#000000;display:inline;overflow:visible;visibility:visible;fill:#e0e0e0;fill-opacity:1;fill-rule:nonzero;stroke:none;stroke-width:1px;marker:none;enable-background:accumulate" />
    <path
       inkscape:transform-center-x="-1.267767"
       inkscape:transform-center-y="1.267767"
       style="color:#000000;display:inline;overflow:visible;visibility:visible;fill:#e0e0e0;fill-opacity:1;fill-rule:nonzero;stroke:none;stroke-width:1px;marker:none;enable-background:accumulate"
       d="m 11.292893,13.707107 c -0.390524,-0.390525 -0.390524,-1.023689 0,-1.414214 0.390525,-0.390524 1.023689,-0.390524 1.414214,0 0.390524,0.390525 2.828427,4.242641 2.828427,4.242641 0,0 -3.852116,-2.437903 -4.242641,-2.828427 z"
       id="path3016"
       inkscape:connector-curvature="0"
       sodipodi:nodetypes="ssscs" />
    <path
       id="path3786"
       d="M 5.125,18.78125 4,21 6.21875,19.875 C 5.8228702,19.541755 5.458245,19.17713 5.125,18.78125 Z m 13.75,0 c -0.333245,0.39588 -0.69787,0.760505 -1.09375,1.09375 L 20,21 18.875,18.78125 Z"
       style="fill:#e0e0e0;fill-opacity:1;fill-rule:nonzero;stroke:none"
       inkscape:connector-curvature="0" />
    <path
       inkscape:transform-center-x="7.15625"
       sodipodi:nodetypes="csc"
       inkscape:connector-curvature="0"
       id="path3799"
       d="m 6.46875,3.5 c -0.8034158,0.4677391 -1.561677,1.030427 -2.25,1.71875 -0.3728112,0.3728112 -0.6918982,0.7779728 -1,1.1875"
       style="color:#000000;display:inline;overflow:visible;visibility:visible;fill:none;stroke:#e0e0e0;stroke-width:3;stroke-linecap:round;stroke-linejoin:round;stroke-miterlimit:4;stroke-dasharray:none;stroke-opacity:1;marker:none;enable-background:accumulate" />
    <path
       inkscape:transform-center-y="-8.046875"
       style="color:#000000;display:inline;overflow:visible;visibility:visible;fill:none;stroke:#e0e0e0;stroke-width:3;stroke-linecap:round;stroke-linejoin:round;stroke-miterlimit:4;stroke-dasharray:none;stroke-opacity:1;marker:none;enable-background:accumulate"
       d="m 17.53125,3.5 c 0.803416,0.4677391 1.561677,1.030427 2.25,1.71875 0.372811,0.3728112 0.691898,0.7779728 1,1.1875"
       id="path3812"
       inkscape:connector-curvature="0"
       sodipodi:nodetypes="csc"
       inkscape:transform-center-x="-7.15625" />
    <path
       inkscape:transform-center-y="0.3082719"
       inkscape:transform-center-x="5.6917281"
       inkscape:connector-curvature="0"
       id="path3814"
       d="M 5,5 7.6165438,7.6165438"
       style="fill:none;stroke:#e0e0e0;stroke-opacity:1" />
    <path
       style="fill:none;stroke:#e0e0e0;stroke-opacity:1"
       d="M 19,5 16.383456,7.6165438"
       id="path3816"
       inkscape:connector-curvature="0"
       inkscape:transform-center-x="-5.691728"
       inkscape:transform-center-y="0.3082719" />
    <path
       sodipodi:nodetypes="cc"
       inkscape:connector-curvature="0"
       id="path3820"
       d="m 11,6 c 2,0 2,-3 2,-4"
       style="fill:none;stroke:#e0e0e0;stroke-width:1;stroke-linecap:round;stroke-linejoin:round;stroke-miterlimit:4;stroke-dasharray:none;stroke-dashoffset:2.5999999;stroke-opacity:1" />
    <circle
       id="path3818"
       style="color:#000000;display:inline;overflow:visible;visibility:visible;fill:#e0e0e0;fill-opacity:1;fill-rule:nonzero;stroke:none;stroke-width:1px;marker:none;enable-background:accumulate"
       cx="13"
       cy="2"
       r="1" />
  </g>
</svg>

<?xml version="1.0" encoding="UTF-8" standalone="no"?>
<svg id="svg3846" xmlns:rdf="http://www.w3.org/1999/02/22-rdf-syntax-ns#" xmlns="http://www.w3.org/2000/svg" height="22" width="22" version="1.1" xmlns:cc="http://creativecommons.org/ns#" xmlns:dc="http://purl.org/dc/elements/1.1/">
    <defs id="defs3615">
        <style id="current-color-scheme" type="text/css">
            .ColorScheme-Text {
            color:#0000FF;
            }
            .ColorScheme-Background{
            color:#E9E8E8;
            }
            .ColorScheme-ViewText {
            color:#31363b;
            }
            .ColorScheme-ViewBackground{
            color:#ffffff;
            }
            .ColorScheme-ViewHover {
            
            }
            .ColorScheme-ViewFocus{
            color:#5a5a5a;
            }
            .ColorScheme-ButtonText {
            color:#31363b;
            }
            .ColorScheme-ButtonBackground{
            color:#E9E8E8;
            }
            .ColorScheme-ButtonHover {
            color:#1489ff;
            }
            .ColorScheme-ButtonFocus{
            color:#2B74C7;
            }
        </style>
    </defs>
	<metadata id="metadata3851">
		<rdf:RDF>
			<cc:Work rdf:about="">
				<dc:format>image/svg+xml</dc:format>
				<dc:type rdf:resource="http://purl.org/dc/dcmitype/StillImage"/>
				<dc:title/>
				<dc:creator>
					<cc:Agent>
						<dc:title>obnosim</dc:title>
					</cc:Agent>
				</dc:creator>
				<cc:license rdf:resource="http://creativecommons.org/licenses/by-nc-sa/3.0/"/>
			</cc:Work>
			<cc:License rdf:about="http://creativecommons.org/licenses/by-nc-sa/3.0/">
				<cc:permits rdf:resource="http://creativecommons.org/ns#Reproduction"/>
				<cc:permits rdf:resource="http://creativecommons.org/ns#Distribution"/>
				<cc:requires rdf:resource="http://creativecommons.org/ns#Notice"/>
				<cc:requires rdf:resource="http://creativecommons.org/ns#Attribution"/>
				<cc:prohibits rdf:resource="http://creativecommons.org/ns#CommercialUse"/>
				<cc:permits rdf:resource="http://creativecommons.org/ns#DerivativeWorks"/>
				<cc:requires rdf:resource="http://creativecommons.org/ns#ShareAlike"/>
			</cc:License>
		</rdf:RDF>
	</metadata>
	<g id="korgac" transform="translate(-1)">
		<rect id="rect3842" style="fill:none" height="22" width="22" y="0" x="1"/>
		<path id="path3008" d="m12 5c-4.4183 0-8 3.5817-8 8s3.5817 8 8 8 8-3.5817 8-8-3.5817-8-8-8zm0 2c3.3137 0 6 2.6863 6 6s-2.6863 6-6 6-6-2.686-6-6c0-3.3137 2.6863-6 6-6z" style="fill:currentColor;opacity:.875" class="ColorScheme-Text"/>
		<path id="path3013" d="m13 13c0 .55228-.44772 1-1 1s-1-.44772-1-1 1-5 1-5 1 4.4477 1 5z" style="fill:currentColor;opacity:.875" class="ColorScheme-Text"/>
		<path id="path3016" style="fill:currentColor;opacity:.875" class="ColorScheme-Text" d="m11.293 13.707c-.39052-.39052-.39052-1.0237 0-1.4142.39052-.39052 1.0237-.39052 1.4142 0 .39052.39052 2.8284 4.2426 2.8284 4.2426s-3.8521-2.4379-4.2426-2.8284z"/>
		<path id="path3786" style="fill:currentColor;opacity:.875" d="m5.125 18.781-1.125 2.219 2.2188-1.125c-.3959-.333-.7606-.698-1.0938-1.094zm13.75 0c-.33324.39588-.69787.76050-1.0938 1.0938l2.219 1.125-1.125-2.219z" class="ColorScheme-Text"/>
		<path id="path3799" style="stroke-linejoin:round;stroke:currentColor;opacity:.875;stroke-linecap:round;stroke-width:3;fill:none" d="m6.4688 3.5c-.80342.46774-1.5617 1.0304-2.25 1.7188-.37281.37281-.69190.77797-1 1.1875" class="ColorScheme-Text"/>
		<path id="path3812" style="stroke-linejoin:round;stroke:currentColor;opacity:.875;stroke-linecap:round;stroke-width:3;fill:none" d="m17.531 3.5c.80342.46774 1.5617 1.0304 2.25 1.7188.37281.37281.69190.77797 1 1.1875" class="ColorScheme-Text"/>
		<path id="path3814" style="stroke:currentColor;opacity:.875;fill:none" d="m5 5 2.6165 2.6165" class="ColorScheme-Text"/>
		<path id="path3816" style="stroke:currentColor;opacity:.875;fill:none" d="m19 5-2.617 2.6165" class="ColorScheme-Text"/>
		<path id="path3820" d="m11 6c2 0 2-3 2-4" style="stroke-linejoin:round;stroke-dashoffset:2.6;stroke:currentColor;opacity:.875;stroke-linecap:round;fill:none" class="ColorScheme-Text"/>
		<circle id="path3818" r="1" style="fill:currentColor;opacity:.875" class="ColorScheme-Text" cx="13" cy="2"/>
	</g>
</svg>
